X:1
T:Wir gläuben all
T:Balthasar Resinarius
T:Source : DDT 34---Leipzig---Breitkopf & Härtel---J.Wolf---1908. First print : Newe Deudsche Geistliche Gesenge---Wittemberg---G.Rhau---1544. Editor : André Vierendeels (01/09/17). 
T:Notes : Original clefs : C1, C3, F4 Original note values have been halved Editorial accidentals above the staff 
T:Wir gläuben all
T:©
T:©
T:©
T:©
T:©
T:©
T:©
C:Balthasar Resinarius
Z:©
%%score [ 1 2 3 ]
L:1/8
Q:1/4=120
M:2/2
K:C
V:1 treble nm="Soprano" snm="S"
V:2 treble-8 nm="Tenor" snm="T"
V:3 bass nm="Bass" snm="B"
V:1
 z8 | z8 | z8 | z8 | z8 | D8 | A4 G4 | A2 E2 F4 | E2 G2 F3 E | D2 C2 D2 E2- |"^#" ED D4 C2 | D8- | %12
w: |||||Wir|gläu- *||* ben all _|_ an ei- *|* * * nen|Gott,|
 D8 | z8 | z8 | A4 A4 | d6 c2 | B2 A2 c2 B2- | BA A4 G2 | A8 | z8 | z8 | z2 B2 c2 A2 | A2 E2 F3 F | %24
w: |||Schöp- fer|Him- mels|und der Er- *||den,|||der sich zum|Va- ter ge- ben|
 E8 | z8 | z8 | z8 | z4 D2 E2 | F2 G2 F3 E | D2 C2 D2 E2- | ED D4 C2 | D8 | z8 | z8 | d4 d4 | %36
w: hat,||||dasz wir|sei- ne Kin- der|wer- * * *||den.|||Er will|
 e2 d2 e2 c2 | d2 e3 dcB | A2 d4 c2 | d8 | z8 | z8 | e2 B2 c2 A2 | A2 E2 F4 | E8 | z8 | z8 | %47
w: uns all- zeit er-|näh- * * * *||ren,|||Leib und Seel auch|wohl be- wah-|ren,|||
 A2 G2 A2 B2 | c3 B A2 G2 | A4 z4 | z8 | z8 | z4 B3 c | d2 A4 G2 | A2 E2 F4 | E4 z4 | z4 z2 G2 | %57
w: al- lem Un- fall|will er weh- *|ren,|||kein _|Leid soll uns|wi- der- fah|ren.|Er|
 G3 F E3 D | C2 D3 E F2- | FE D4 C2 | D8 | z8 | z8 | F3 G A3 B | c3 B A3 G | F3 E D2 F2- | %66
w: sor- * * *|get für _ _|_ _ _ _|uns,|||hü- tet und _|wacht, _ _ _|_ _ _ es|
 F2 E2 F2 G2 | F4 D2 E2 | ED D4 C2 | D8- | D8- | D8- | D8- | D8 |] %74
w: _ _ _ steht|al- les in|sei- * * ner|Macht.|_||||
V:2
 z8 | z4 A4 | e4 d4 | e2 B2 c4 | B2 d3 ccB | d2 B3 A B2 | c2 d2 B4 | A2 c4 B2 | c2 G2 A3 G | %9
w: |Wir|gläu- *||ben all _ _ _|an ei- * *||||
 F2 E2 F2 G2 | D4 E4 | D4 z2 A2- | A2 A2 d4- | d2 c2 B2 A2 |"^#" c2 A3 GGF | A4 z2 A2 | %16
w: |* nen|Gott, Schöp-|* fer Him-|* mels und der|Er- * * * *|den, Schöp-|
 B3 c d2 A2 | B2 c2 A2 B2 | c2 d2 B4 | A8 | z2 B2 c2 A2 | A2 E2 F3 F | E3 F G2 A2- | AB c3 BBA | %24
w: * * * fer|Him- mels und der|Er- * *|den,|der sich zum|Va- ter ge- ben|hat, _ _ _|_ _ _ _ _ _|
 c3 B/A/ G2 A2 | D2 E2 F2 G2 | A2 B2 cBAG | A2 d3 ccB | d4 z2 c2 | d2 e2 c3 B | A2 G2 A2 B2- | %31
w: |dasz wir sei- ne|Kin- * * * * *||der wer-|||
 BA A4 G2 | A4 z2 d2- | d2 d2 e2 d2 | c2 B2 c4 | B4 z2 G2 | c2 B2 c2 e2 | d2 c3 d e2 | f2 d2 e4 | %39
w: |den. Er|_ will uns all-|zeit er- näh-|ren, er|wil _ _ uns|all- zeit _ _|er- näh- *|
 d8 | e2 B2 c2 A2 | A2 E2 F4 | E3 F G2 AG | AB c3 BBA | c4 A2 G2 | A2 B2 c3 B | A2 G2 A4 | %47
w: ren,|Leib und Seel auch|wohl be- wah-|||ren, al- lem|Un- fall will er|weh- * ren,|
 A2 B2 c2 d2 | e3 d c2 B2 | A4 B3 c | d2 A4 G2 | A2 E2 F4 | E3 F G3 A | B2 c2 B4 | A2 c3 BBA | %55
w: [al- lem Un- fall|will er weh- *|ren,] kein _|_ Leid soll|uns wi- der-|fah- * * *|||
 c4 z2 d2 | d3 c B3 A | G4 c3 B | A4 B2 c2- | cB A4 G2 | A8 | z2 F3 GAB | cA d4 c2 | d2 D2 F3 G | %64
w: ren. Er|sor- * * *|get für _|_ uns, hü-|* * tet und|wacht,|er _ _ _|_ _ sor- get|für uns, hü- tet|
 A3 B c3 B | A3 G F2 ED | G4 F2 E2 | A4 F2 G2- | GF D2 E4 | D6 E2 | F2 G3 FFE | G2 _B2 A2 B2- | %72
w: und _ wacht, _|_ _ _ _ _|es _ steht|al- * *|* * les in|sei- *|||
 B2 AG A2 _B2 | A8 |] %74
w: * * * * ner|Macht|
V:3
 D,4 A,4 | G,4 A,3 G, | A,2 E,2 F,4 | E,2 G,3 F,F,E, | G,F,E,D, E,4 | D,2 G,3 F, G,2 | %6
w: Wir gläu-|||||ben all _ _|
 F,2 D,2 E,4 | F,E,D,C, D,4 | C,2 E,2 D,4- | D,2 A,,2 D,2 C,2 | B,,4 A,,4 | D,8 | z2 D,4 D,2 | %13
w: _ _ an|ei- * * * *|||* nen|Gott,|Schöp- fer|
 G,6 F,2 | E,2 D,2 E,4 | A,,2 A,3 G, F,2 | G,4 z2 A,2 | G,2 A,2 F,2 G,2 | F,2 D,2 E,4 | %19
w: Him- *|* mels und|der Er- * *|den, Schöp-|fer Him- * *|* mels und|
 A,,2 D,3 E,F,D, | G,4 F,3 E, | D,2 C,2 D,3 D, | A,,2 E,2 C,2 F,2- | F,2 E,2 D,4 | C,4 z2 A,,2 | %25
w: der Er- * * *|den, der _|sich _ _ zum|Va- * ter ge-|* * ben|hat, dasz|
 B,,2 C,2 D,2 E,2 | F,2 G,2 F,3 E, | F,2 D,2 E,4 | D,2 G,3 F, E,2 | D,2 C,2 A,3 G, | %30
w: wir sei- ne Kin-|||der wer- * *||
 F,2 E,2 D,2 G,2- | G,F,E,D, E,4 | D,8 | z2 G,4 G,2 | A,2 G,2 A,2 F,2 | G,4 G,4 | z2 G,2 C2 A,2 | %37
w: ||den|Er will|uns all- zeit er-|näh- ren,|er will uns|
 B,2 C3 B,A,G, |"^b" F,2 B,2 A,4 | D,2 G,3 F,E,D, | C,2 G,2 F,3 E, | D,2 C,2 D,4 | %42
w: all- zeit _ _ _|_ _ _|er- näh- * * *||* ren, Leib|
 A,,2 E,2 C,2 F,2- | F,2 E,2 D,4 | C,4 z2 E,2 | F,2 G,2 E,3 D, | C,2 B,,2 A,,4 | z8 | z4 z2 E,2 | %49
w: und Seel auch wohl|_ be- wah-|ren, Al-|* len Un- *|* * fall||will|
 F,4 E,4 | D,2 C,2 B,,4 | A,,4 z2 D,2 | C,3 D, E,3 D,/C,/ | B,,2 A,,2 E,4 | F,E,D,C, D,4 | %55
w: er weh-||ren, kein|Leid _ _ _ _|_ soll uns|wi- * * * der|
 C,D,E,F, G,4 | z2 G,2 G,3 F, | E,3 D, C,2 C,2 | F,3 E, D,2 A,2- | A,G, F,2 E,4 | D,2 F,3 G,A,B, | %61
w: fah- * * * ren.|Er sor- *|* * get fûr|uns, _ _ hü-|* * * tet|und wacht, _ _ _|
 C3 B, A,3 G, | F,2 E,D, A,4 | D,6 C,B,, | A,,8 | z4 z2 D,2 | C,4 D,2 C,2 | D,6 C,2- | %68
w: _ _ _ _||||es|steht al- *||
 C,A,, D,2 A,,4 |"^b" D,2 B,,4 C,2 | D,2 G,,2 D,4 | G,,2 G,2 F,2 G,2- | G,2 F,E, D,2 G,2 | D,8 |] %74
w: * * les in|sei- * *|||* * * * ner|Macht|

